X: 34679
T: Road To Diabaig, The
R: reel
M: 4/4
K: Cmajor
|:B|AEED CEAB|cdBc A2 Bc|BG G2 Bcdf|edcB cBAG|
AEED CEAB|cdBc A2 Bc|BG G2 Bcdf|edcB A3:|
|:=f|eA A2 eAgA|^fd d2 fdad|eA A2 eAge|dBGB d2 e=f|
eA A2 eAgA|^fd d2 fdad|eA A2 eAge|dBGB A3:|

